src/assets/upbot.svg

<svg fill="none" height="115" viewBox="0 0 113 115" width="113" xmlns="http://www.w3.org/2000/svg"><circle cx="56.5" cy="56.5" fill="#16d2aa" r="56.5"/><path d="m56.2779 94.4258c-20.8033 0-24.5872 13.4482-24.5872 13.4482s23.962 14.682 49.1744.466c0 0-3.7798-13.9142-24.5872-13.9142z" fill="#e0efe8"/><path d="m31.6907 108.593s3.7839-14.1672 24.5872-14.1672 24.624 14.6782 24.624 14.6782" fill="#e0efe8"/><g stroke="#000" stroke-miterlimit="10" stroke-width="2"><path d="m31.6907 108.593s3.7839-14.1672 24.5872-14.1672 24.624 14.6782 24.624 14.6782"/><path d="m57.1237 30.3948s-1.7407-11.27 8.5322-16.4964"/><path d="m69.3582 16.8848c2.0446 0 3.7022-1.6575 3.7022-3.7022 0-2.0446-1.6576-3.70213-3.7022-3.70213-2.0447 0-3.7022 1.65753-3.7022 3.70213 0 2.0447 1.6575 3.7022 3.7022 3.7022z" fill="#f3f9f6"/><path d="m22.2922 71.4829c5.132 0 9.2922-4.1603 9.2922-9.2922 0-5.132-4.1602-9.2923-9.2922-9.2923-5.1319 0-9.2922 4.1603-9.2922 9.2923 0 5.1319 4.1603 9.2922 9.2922 9.2922z" fill="#e0efe8"/><path d="m91.8616 71.4829c5.1319 0 9.2924-4.1603 9.2924-9.2922 0-5.132-4.1605-9.2923-9.2924-9.2923-5.132 0-9.2923 4.1603-9.2923 9.2923 0 5.1319 4.1603 9.2922 9.2923 9.2922z" fill="#e0efe8"/><path d="m57.0792 36.4763c3.2792 0 5.9374-2.6582 5.9374-5.9374 0-3.2791-2.6582-5.9373-5.9374-5.9373-3.2791 0-5.9374 2.6582-5.9374 5.9373 0 3.2792 2.6583 5.9374 5.9374 5.9374z" fill="#e0efe8"/><path d="m67.7279 90.1146h-21.3018c-14.2325 0-25.7681-11.5356-25.7681-25.7682v-8.1603c0-14.2325 11.5356-25.7681 25.7681-25.7681h21.3018c14.2326 0 25.7682 11.5356 25.7682 25.7681v8.1603c0 14.2326-11.5356 25.7682-25.7682 25.7682z" fill="#e0efe8"/><path d="m73.0893 79.5808h-32.0161c-6.2928 0-11.3925-5.0997-11.3925-11.3925v-10.8778c0-6.2928 5.0997-11.3925 11.3925-11.3925h32.0161c6.2929 0 11.3926 5.0997 11.3926 11.3925v10.8778c0 6.2928-5.1038 11.3925-11.3926 11.3925z" fill="#fff"/><path d="m62.3912 69.3867s-.9848 4.0455-5.3122 4.0455c-4.3314 0-5.3122-4.0455-5.3122-4.0455" stroke-linecap="round" stroke-linejoin="round"/><path d="m44.9185 30.5391v14.8495"/><path d="m69.2849 30.5391v14.8495"/><path d="m67.1438 63.6813s.6988-2.8727 3.7757-2.8727c3.077 0 3.7758 2.8727 3.7758 2.8727" stroke-linecap="round" stroke-linejoin="round"/><path d="m39.5081 63.6813s.6987-2.8727 3.7757-2.8727 3.7757 2.8727 3.7757 2.8727" stroke-linecap="round" stroke-linejoin="round"/></g></svg>

<svg width="113" height="115" viewBox="0 0 113 115" fill="none" xmlns="http://www.w3.org/2000/svg">
<circle cx="56.5" cy="56.5" r="56.5" fill="#16D2AA"/>
<path d="M56.2779 94.4258C35.4746 94.4258 31.6907 107.874 31.6907 107.874C31.6907 107.874 55.6527 122.556 80.8651 108.34C80.8651 108.34 77.0853 94.4258 56.2779 94.4258Z" fill="#E0EFE8"/>
<path d="M31.6907 108.593C31.6907 108.593 35.4746 94.4258 56.2779 94.4258C77.0812 94.4258 80.9019 109.104 80.9019 109.104" fill="#E0EFE8"/>
<path d="M31.6907 108.593C31.6907 108.593 35.4746 94.4258 56.2779 94.4258C77.0812 94.4258 80.9019 109.104 80.9019 109.104" stroke="black" stroke-width="2" stroke-miterlimit="10"/>
<path d="M57.1237 30.3948C57.1237 30.3948 55.383 19.1248 65.6559 13.8984" stroke="black" stroke-width="2" stroke-miterlimit="10"/>
<path d="M69.3582 16.8848C71.4028 16.8848 73.0604 15.2273 73.0604 13.1826C73.0604 11.138 71.4028 9.48047 69.3582 9.48047C67.3135 9.48047 65.656 11.138 65.656 13.1826C65.656 15.2273 67.3135 16.8848 69.3582 16.8848Z" fill="#F3F9F6" stroke="black" stroke-width="2" stroke-miterlimit="10"/>
<path d="M22.2922 71.4829C27.4242 71.4829 31.5844 67.3226 31.5844 62.1907C31.5844 57.0587 27.4242 52.8984 22.2922 52.8984C17.1603 52.8984 13 57.0587 13 62.1907C13 67.3226 17.1603 71.4829 22.2922 71.4829Z" fill="#E0EFE8" stroke="black" stroke-width="2" stroke-miterlimit="10"/>
<path d="M91.8616 71.4829C96.9935 71.4829 101.154 67.3226 101.154 62.1907C101.154 57.0587 96.9935 52.8984 91.8616 52.8984C86.7296 52.8984 82.5693 57.0587 82.5693 62.1907C82.5693 67.3226 86.7296 71.4829 91.8616 71.4829Z" fill="#E0EFE8" stroke="black" stroke-width="2" stroke-miterlimit="10"/>
<path d="M57.0792 36.4763C60.3584 36.4763 63.0166 33.8181 63.0166 30.5389C63.0166 27.2598 60.3584 24.6016 57.0792 24.6016C53.8001 24.6016 51.1418 27.2598 51.1418 30.5389C51.1418 33.8181 53.8001 36.4763 57.0792 36.4763Z" fill="#E0EFE8" stroke="black" stroke-width="2" stroke-miterlimit="10"/>
<path d="M67.7279 90.1146H46.4261C32.1936 90.1146 20.658 78.579 20.658 64.3464V56.1861C20.658 41.9536 32.1936 30.418 46.4261 30.418H67.7279C81.9605 30.418 93.4961 41.9536 93.4961 56.1861V64.3464C93.4961 78.579 81.9605 90.1146 67.7279 90.1146Z" fill="#E0EFE8" stroke="black" stroke-width="2" stroke-miterlimit="10"/>
<path d="M73.0893 79.5808H41.0732C34.7804 79.5808 29.6807 74.4811 29.6807 68.1883V57.3105C29.6807 51.0177 34.7804 45.918 41.0732 45.918H73.0893C79.3822 45.918 84.4819 51.0177 84.4819 57.3105V68.1883C84.4819 74.4811 79.3781 79.5808 73.0893 79.5808Z" fill="white" stroke="black" stroke-width="2" stroke-miterlimit="10"/>
<path d="M62.3912 69.3867C62.3912 69.3867 61.4064 73.4322 57.079 73.4322C52.7476 73.4322 51.7668 69.3867 51.7668 69.3867" stroke="black" stroke-width="2" stroke-miterlimit="10" stroke-linecap="round" stroke-linejoin="round"/>
<path d="M44.9185 30.5391V45.3886" stroke="black" stroke-width="2" stroke-miterlimit="10"/>
<path d="M69.2849 30.5391V45.3886" stroke="black" stroke-width="2" stroke-miterlimit="10"/>
<path d="M67.1438 63.6813C67.1438 63.6813 67.8426 60.8086 70.9195 60.8086C73.9965 60.8086 74.6953 63.6813 74.6953 63.6813" stroke="black" stroke-width="2" stroke-miterlimit="10" stroke-linecap="round" stroke-linejoin="round"/>
<path d="M39.5081 63.6813C39.5081 63.6813 40.2068 60.8086 43.2838 60.8086C46.3608 60.8086 47.0595 63.6813 47.0595 63.6813" stroke="black" stroke-width="2" stroke-miterlimit="10" stroke-linecap="round" stroke-linejoin="round"/>
</svg>
